X:1
T:The Homecoming
M:6/8
L:1/8
R:Jig
D:Session tape - Bangor Down 198 (Nigel and Dianna Boullier.)
Z:Bernie Stocks (chords by John Chambers)
K:G
|: "D7"D3 DEF |  "G"G3  GAB | "D7"c2A  "G"BAG | "A7"A2G  "D"FED \
|  "D7"D3 DEF |  "G"G3  GAB | "D7"cBA  "G"BdB | "D7"AGF  "G"G3 :|
|: "G"dBG GBd | "Am"ecA ABc |  "G"dcB "A7"A2G |  "D"FDD "D7"D3  \
|  "G"dBG GBd | "Am"ecA ABc | "D7"cBA  "G"BdB | "D7"AGF  "G"G3 :|
